korla/actions/symbolic/process-stop-symbolic.svg

<svg style="clip-rule:evenodd;fill-rule:evenodd;stroke-linejoin:round;stroke-miterlimit:2" version="1.1" viewBox="0 0 16 16" xmlns="http://www.w3.org/2000/svg">
 <path d="m5 1-4 4v6l4 4h6l4-4v-6l-4-4h-6zm0.539 0.849h4.922l3.69 3.69v4.922l-3.69 3.69h-4.922l-3.69-3.69v-4.922l3.69-3.69z" style="fill:rgb(223,223,223)"/>
 <path d="m6.5 4-2.5 2.5v3l2.5 2.5h3l2.5-2.5v-3l-2.5-2.5h-3z" style="fill-opacity:.5;fill:rgb(223,223,223)"/>
</svg>

<svg xmlns="http://www.w3.org/2000/svg" width="16" height="16" version="1.1">
 <path style="fill:#dfdfdf" d="M 5,1 1,5 V 11 L 5,15 H 11 L 15,11 V 5 L 11,1 Z M 6,3 H 10 L 13,6 V 10 L 10,13 H 6 L 3,10 V 6 Z M 6.5,4 4,6.5 V 9.5 L 6.5,12 H 9.5 L 12,9.5 V 6.5 L 9.5,4 Z"/>
</svg>
